X:1
T:James Gibb editions
T:O occhi, manza mia - Lasso
T:#
%%score [ 1 2 3 4 ]
L:1/8
Q:1/4=120
M:4/4
K:Ab
V:1 treble nm="Soprano" snm="S"
V:2 treble nm="Alto" snm="A"
V:3 treble-8 nm="Tenor" snm="T"
V:4 bass nm="Bass" snm="B"
V:1
"^Orlando di Lasso\n(1532-94)""^O occhi, manza mia" c4 A2 A2 | B2 c2 d4 | c4 z2 c2 | B2 =A2 B2 c2 | %4
w: O oc- chi,|man- za mi-|a, O|oc- chi, man- za|
w: O boc- ca|com' zuc- ca-|ro, O|boc- ca com' zuc-|
w: O cuo- re,|man- za mi-|a, O|cuo- re, man- za|
 d4 d2 c2 |[M:4/4] (B2 A4) G2 | A8 :| c4 =d2 e2 | c4 e4 | =d4 e4 | z2 c2 c2 c2 | _d2 d2 c4 | %12
w: mi- a, ci-|gli do- ra-|ti.|O fac- cia|d'u- na|lu- na,|O fac- cia|d'u- na lu-|
w: ca- ro im|pa\- * na-|to.|O can- na|che spec-|chia- re,|O can- na|che spec- chia-|
w: mi- a, per-|fi- do cuo-|re.|Tu sei la|gio- ia|mi- a,|tu sei la|gio- ia mi-|
 A2 c2 c2 (e2- | e2 =d2) e4 |:[M:4/4] c2 cc =A2 A2 | B2 BB G2 G2 | A2 AA B2 A2 | G4 z2 A2 | %18
w: na stra- lu- cen\-|* * te.|Tie- ni- mi~~a men- te,|gio- ia mia bel- la,|guar- da- m'un po- c'a|me, a|
w: re, fai la gen\-|* * te.|||||
w: a lo mio~~a- mo\-|* * re.|||||
 F4 z2 A2 | F4 B4 | A4 A2 (A2- | A2 GF G4) | !fermata!A8 :| %23
w: me, a|me, fa|mi con- ten\-||to.|
w: |||||
w: |||||
V:2
 A4 E2 F2 | F2 A2 A4 | A4 z2 A2 | G2 F2 F2 A2 | A4 A2 _G2 |[M:4/4] (_G2 E2) E4 | E8 :| E4 B2 B2 | %8
w: O oc- chi,|man- za mi-|a, O|oc- chi, man- za|mi- a, ci-|gli do- ra-|ti.|O fac- cia|
w: O boc- ca|com' zuc- ca-|ro, O|boc- ca com' zuc-|ca- ro im|pa\- * na-|to.|O can- na|
w: O cuo- re,|man- za mi-|a, O|cuo- re, man- za|mi- a, per-|fi- do cuo-|re.|Tu sei la|
 A2 E2 ((EFG=A) | B4) B4 | z2 A2 A2 A2 | A2 A2 A4 | E2 A4 G2 | B4 B4 |:[M:4/4] A2 AA c2 c2 | %15
w: d'u- * na * * *|lu- na,|O fac- cia|d'u- na lu-|na stra- lu-|cen- te.|Tie- ni- mi~~a men- te,|
w: che spec- chia\- * * *|* re,|O can- na|che spec- chia-|re, fai la|gen- te.||
w: gio- * ia * * *|mi- a,|tu sei la|gio- ia mi-|a lo mio~~a-|mo- re.||
 F2 FF B2 B2 | E2 EE _G2 E2 | E2 E2 C4 | z2 D2 C4 | z2 D2 D2 E2 | F4 (F4 | E8 | !fermata!E8) :| %23
w: gio- ia mia bel- la,|guar- da- m'un po- c'a|me, a me,|a me,|fa mi con-|ten- to.|||
w: ||||||||
w: ||||||||
V:3
 e4 c2 c2 | d2 e2 f4 | e4 z2 e2 | e2 c2 d2 e2 | f4 f2 e2 |[M:4/4][K:treble-8] (d2 c2) B4 | c8 :| %7
w: O oc- chi,|man- za mi-|a, O|oc- chi, man- za|mi- a, ci-|gli do- ra-|ti.|
w: O boc- ca|com' zuc- ca-|ro, O|boc- ca com' zuc-|ca- ro im|pa\- * na-|to.|
w: O cuo- re,|man- za mi-|a, O|cuo- re, man- za|mi- a, per-|fi- do cuo-|re.|
 a4 f2 g2 | e2 a2 ((g2 fe) | f4) g4 | z2 e2 e2 e2 | f2 f2 e4 | c2 e4 e2 | f4 g4 |: %14
w: O fac- cia|d'u- * na * *|lu- na,|O fac- cia|d'u- na lu-|na stra- lu-|cen- te.|
w: O can- na|che spec- chia\- * *|* re,|O can- na|che spec- chia-|re, fai la|gen- te.|
w: Tu sei la|gio- * ia * *|mi- a,|tu sei la|gio- ia mi-|a lo mio~~a-|mo- re.|
[M:4/4][K:treble-8] e2 ee f2 f2 | =d2 dd e2 e2 | c2 cc d2 c2 | B4 z2 A2 | A4 z2 A2 | A4 B4 | %20
w: Tie- ni- mi~~a men- te,|gio- ia mia bel- la,|guar- da- m'un po- c'a|me, a|me, a|me, fa|
w: ||||||
w: ||||||
 c4 d4 | B8 | !fermata!c8 :| %23
w: mi con-|ten-|to.|
w: |||
w: |||
V:4
 A,4 A,2 F,2 | B,2 A,2 D,4 | A,4 z2 A,2 | E,2 F,2 B,2 A,2 | D,4 D,2 E,2 |[M:4/4] (_G,2 A,2) E,4 | %6
w: O oc- chi,|man- za mi-|a, O|oc- chi, man- za|mi- a, ci-|gli do- ra-|
w: O boc- ca|com' zuc- ca-|ro, O|boc- ca com' zuc-|ca- ro im|pa\- * na-|
w: O cuo- re,|man- za mi-|a, O|cuo- re, man- za|mi- a, per-|fi- do cuo-|
 A,8 :| A,4 B,2 E,2 | A,4 C4 | B,4 E,4 | z2 A,2 A,2 A,2 | D2 D,2 A,4 | A,2 A,4 C2 | B,4 E,4 |: %14
w: ti.|O fac- cia|d'u- na|lu- na,|O fac- cia|d'u- na lu-|na stra- lu-|cen- te.|
w: to.|O can- na|che spec-|chia- re,|O can- na|che spec- chia-|re, fai la|gen- te.|
w: re.|Tu sei la|gio- ia|mi- a,|tu sei la|gio- ia mi-|a lo mio~~a-|mo- re.|
[M:4/4] A,2 A,A, F,2 F,2 | B,2 B,B, E,2 E,2 | A,2 A,A, _G,2 A,2 | E,4 z2 F,2 | D,4 z2 F,2 | %19
w: Tie- ni- mi~~a men- te,|gio- ia mia bel- la,|guar- da- m'un po- c'a|me, a|me, a|
w: |||||
w: |||||
 D,4 _G,4 | F,4 D,4 | E,8 | !fermata!A,,8 :| %23
w: me, fa|mi con-|ten-|to.|
w: ||||
w: ||||

